X:2
T:Polska efter Skinnar Albin Larsson
R:polska O
A:Malung, Dalarna
Z:hn-op-2
M:3/4
K:Am
A^c/e/ a3 ^g/a/|ba/^g/ a3 e|fe de fg|(3agf ed =cB|
A^c/e/ a3 ^g/a/|ba/^g/ a3 e|fe de fg|(3agf e4:|
|:ea cd ef|ec AB c2|(3cBc dc B^G|AB cd e2|
ea cd ef|ec AB c2|(3cBc dc BA|^G2 A4:|
<end>
<start>
